round/svg/airline_seat_recline_extra.svg

<svg xmlns="http://www.w3.org/2000/svg" width="24" height="24"><path fill="none" d="M0 0h24v24H0V0z"/><g><path d="M5.35 5.64c-.9-.64-1.12-1.88-.49-2.79.63-.9 1.88-1.12 2.79-.49.9.64 1.12 1.88.49 2.79-.64.9-1.88 1.12-2.79.49zM16 20c0-.55-.45-1-1-1H8.93c-1.48 0-2.74-1.08-2.96-2.54L4.16 7.78A.976.976 0 0 0 3.2 7c-.62 0-1.08.57-.96 1.18l1.75 8.58A5.01 5.01 0 0 0 8.94 21H15c.55 0 1-.45 1-1zm-.46-5h-4.19l-1.03-4.1c1.28.72 2.63 1.28 4.1 1.3.58.01 1.05-.49 1.05-1.07 0-.59-.49-1.04-1.08-1.06-1.31-.04-2.63-.56-3.61-1.33L9.14 7.47c-.23-.18-.49-.3-.76-.38a2.21 2.21 0 0 0-.99-.06h-.02a2.268 2.268 0 0 0-1.84 2.61l1.35 5.92A3.008 3.008 0 0 0 9.83 18h6.85l3.09 2.42c.42.33 1.02.29 1.39-.08.45-.45.4-1.18-.1-1.57l-4.29-3.35a2.01 2.01 0 0 0-1.23-.42z"/></g></svg>

<?xml version="1.0" encoding="utf-8"?>
<!-- Generator: Adobe Illustrator 19.1.0, SVG Export Plug-In . SVG Version: 6.00 Build 0)  -->
<svg version="1.1" xmlns="http://www.w3.org/2000/svg" xmlns:xlink="http://www.w3.org/1999/xlink" x="0px" y="0px" width="24px"
	 height="24px" viewBox="0 0 24 24" enable-background="new 0 0 24 24" xml:space="preserve">
<g id="Bounding_Boxes">
	<g id="ui_x5F_spec_x5F_header_copy_2">
	</g>
	<path fill="none" d="M0,0h24v24H0V0z"/>
</g>
<g id="Rounded_1_">
	<path d="M5.35,5.64C4.45,5,4.23,3.76,4.86,2.85c0.63-0.9,1.88-1.12,2.79-0.49C8.55,3,8.77,4.24,8.14,5.15
		C7.5,6.05,6.26,6.27,5.35,5.64z M16,20c0-0.55-0.45-1-1-1H8.93c-1.48,0-2.74-1.08-2.96-2.54L4.16,7.78C4.07,7.33,3.67,7,3.2,7h0
		C2.58,7,2.12,7.57,2.24,8.18l1.75,8.58C4.37,19.2,6.47,21,8.94,21H15C15.55,21,16,20.55,16,20L16,20z M15.54,15h-4.19l-1.03-4.1
		c1.28,0.72,2.63,1.28,4.1,1.3c0.58,0.01,1.05-0.49,1.05-1.07v0c0-0.59-0.49-1.04-1.08-1.06c-1.31-0.04-2.63-0.56-3.61-1.33
		L9.14,7.47c-0.23-0.18-0.49-0.3-0.76-0.38C8.06,7,7.72,6.97,7.39,7.03H7.37C6.14,7.25,5.32,8.42,5.53,9.64l1.35,5.92
		C7.16,16.98,8.39,18,9.83,18h6.85l3.09,2.42c0.42,0.33,1.02,0.29,1.39-0.08l0,0c0.45-0.45,0.4-1.18-0.1-1.57l-4.29-3.35
		C16.42,15.15,15.99,15,15.54,15z"/>
</g>
</svg>
